public/logos/lifetime.svg

<svg width="658" height="200" viewBox="0 0 658 200" fill="none" xmlns="http://www.w3.org/2000/svg">
<path d="M46.7297 149.693H51.8503C75.212 149.693 89.9741 137.223 111.082 106.759H111.492L96.1239 154.625H0V154.215C9.2184 148.9 11.4788 143.993 14.7558 130.503L38.5279 35.6402C39.9611 29.7137 40.7819 25.4183 40.7819 22.1496C40.7819 17.6527 39.557 14.787 35.6613 11.9277V11.5183H89.9615V11.9277C80.7368 17.2433 78.4827 22.1496 75.2057 35.6402L46.7297 149.693Z" fill="white"/>
<path d="M146.872 136.06C146.646 137.344 146.508 138.643 146.461 139.947C146.461 143.425 148.104 145.674 151.383 145.674C153.276 145.621 155.12 145.055 156.715 144.036V144.446C150.359 153.266 142.361 156.719 133.542 156.719C120.211 156.719 114.468 148.743 114.468 137.899C114.414 134.926 114.76 131.96 115.498 129.079L128.62 75.6944C130.263 69.1545 131.286 65.2671 131.286 62.4066C131.286 58.7208 130.054 56.2699 126.977 53.8127V53.4032H167.588L146.872 136.06ZM158.114 4.4147C168.588 4.4147 175.976 11.9612 175.976 21.7653C176.003 26.9706 173.935 31.9706 170.233 35.6513C166.531 39.3321 161.503 41.388 156.268 41.3613C145.8 41.3613 138.406 33.8145 138.406 24.0104C138.324 18.7884 140.369 13.7552 144.076 10.0552C147.783 6.3551 152.837 4.30263 158.089 4.36439L158.114 4.4147Z" fill="white"/>
<path d="M218.043 53.3552H233.396L230.937 58.4714H217.021L194.095 151.326C185.702 185.483 170.967 199.59 140.676 200V199.59C151.527 192.231 156.231 174.438 165.645 133.533L183.042 58.4714H173.628L174.258 56.222L184.675 51.7233L186.516 45.9958C193.887 16.7475 215.993 0 239.323 0C252.218 0 262.653 6.33861 262.653 16.9744C262.653 29.0467 253.826 35.7948 243.617 35.7948C236.858 35.7948 232.154 32.1089 231.133 27.818C237.268 26.791 244.027 21.4731 244.027 9.81665C244.027 5.92905 241.978 3.27642 238.295 3.27642C230.924 3.27642 224.783 13.5026 220.899 37.4268L218.043 53.3552Z" fill="white"/>
<path d="M218.44 119.276C218.44 86.7365 245.268 51.134 280.273 51.134C297.069 51.134 305.467 59.7321 305.467 71.8034C305.467 94.7168 280.684 104.538 252.013 105.767C251.382 109.623 251.038 113.521 250.985 117.429C250.985 133.818 258.771 141.779 269.623 141.779C278.841 141.779 285.189 137.278 292.968 127.048H294.192C285.592 146.898 270.847 156.719 253.029 156.719C232.776 156.719 218.44 143.828 218.44 119.276ZM252.692 102.617C269.869 97.3036 282.749 77.4836 282.749 61.3343C282.749 57.2481 281.313 54.799 278.655 54.799C269.459 54.799 256.988 79.9202 252.692 102.617Z" fill="white"/>
<path d="M336.9 130.121C336.489 131.518 336.277 132.965 336.269 134.42C336.269 140.351 340.153 143.83 345.065 143.83C348.344 143.83 352.632 141.989 356.529 138.302L356.737 138.712C349.17 150.782 339.132 156.719 326.237 156.719C311.502 156.719 303.721 148.122 303.721 134.829C303.825 131.444 304.307 128.08 305.158 124.802L321.735 58.5163H314.383L315.014 55.8565C336.301 50.3291 350.009 38.4674 363.111 17.8008H364.953L356.125 53.3985H375.369L373.112 58.5163H354.694L336.9 130.121Z" fill="white"/>
<path d="M397.641 136.06C397.415 137.344 397.278 138.643 397.231 139.947C397.231 143.425 398.873 145.674 402.152 145.674C404.046 145.621 405.889 145.055 407.484 144.036V144.446C401.129 153.266 393.131 156.719 384.311 156.719C370.981 156.719 365.238 148.743 365.238 137.899C365.184 134.926 365.53 131.96 366.268 129.079L379.39 75.6944C381.032 69.1545 382.056 65.267 382.056 62.4066C382.056 58.7208 380.824 56.2699 377.747 53.8127V53.4032H418.357L397.641 136.06ZM408.884 4.41502C419.358 4.41502 426.745 11.9614 426.745 21.7655C426.772 26.9708 424.704 31.9706 421.003 35.6514C417.301 39.3321 412.272 41.388 407.037 41.3613C396.57 41.3613 389.176 33.8146 389.176 24.0106C389.093 18.7842 391.142 13.7471 394.854 10.0463C398.567 6.34553 403.627 4.29609 408.884 4.36471V4.41502Z" fill="white"/>
<path d="M549.849 136.048C549.454 137.308 549.242 138.618 549.218 139.938C549.218 143.418 550.858 145.668 554.34 145.668C556.165 145.609 557.937 145.042 559.455 144.029V144.439C553.312 153.265 545.326 156.719 536.527 156.719C523.009 156.719 517.073 148.738 517.073 137.889C517.073 135.027 517.704 132.165 518.335 129.063L530.004 82.199C530.775 79.7484 531.2 77.2021 531.266 74.6341C531.266 71.3623 530.004 69.3135 526.762 69.3135C520.41 69.3135 513.856 77.7042 509.353 94.8953L494.611 154.645H461.647L479.668 82.2053C480.42 79.8898 480.833 77.4776 480.892 75.0439C480.892 71.564 479.46 69.3135 475.978 69.3135C469.632 69.3135 463.287 77.7042 458.783 95.5068L444.016 154.645H410.844L430.499 75.6553C431.931 69.1117 432.959 65.2221 432.959 62.3601C432.959 58.6722 431.697 56.2199 428.859 53.7614V53.3516H469.229L463.293 76.8846C470.862 60.721 480.286 51.3091 494.416 51.3091C507.927 51.3091 513.863 60.513 513.863 72.3835C513.828 73.8243 513.693 75.2609 513.459 76.6829C521.237 60.513 531.064 51.3091 544.998 51.3091C558.717 51.3091 564.451 60.1348 564.451 71.772C564.367 75.6291 563.887 79.4673 563.019 83.2265L549.849 136.048Z" fill="white"/>
<path d="M567.072 119.276C567.072 86.7365 593.907 51.134 628.905 51.134C645.701 51.134 654.099 59.7321 654.099 71.8034C654.099 94.7168 629.315 104.538 600.645 105.767C600.016 109.624 599.674 113.521 599.623 117.429C599.623 133.818 607.403 141.779 618.255 141.779C627.473 141.779 633.82 137.278 641.6 127.048H642.862C634.256 146.898 619.517 156.719 601.692 156.719C581.439 156.719 567.072 143.828 567.072 119.276ZM601.324 102.617C618.5 97.3036 631.381 77.4836 631.381 61.3343C631.381 57.2481 629.951 54.799 627.293 54.799C618.116 54.799 605.645 79.9202 601.349 102.617H601.324Z" fill="white"/>
<path d="M657.245 149.465C657.203 153.41 653.972 156.577 650.022 156.544C646.071 156.512 642.892 153.293 642.915 149.348C642.938 145.403 646.154 142.22 650.105 142.234C654.069 142.279 657.255 145.506 657.245 149.465ZM656.546 149.575C656.504 146.067 653.63 143.254 650.117 143.281C646.604 143.309 643.775 146.168 643.789 149.676C643.803 153.184 646.654 156.021 650.167 156.021C651.866 156.009 653.491 155.323 654.682 154.114C655.874 152.905 656.536 151.272 656.52 149.575H656.546ZM650.846 150.068L653.225 153.403H652.298L649.969 150.112H648.397V153.403H647.633V145.375H650.341C652.102 145.375 652.866 146.392 652.866 147.719C652.909 148.301 652.717 148.876 652.332 149.316C651.948 149.755 651.403 150.022 650.821 150.056L650.846 150.068ZM648.507 149.564H650.232C651.719 149.564 652.177 148.741 652.177 147.867C652.177 146.852 651.481 146.248 650.414 146.248H648.532L648.507 149.564Z" fill="white"/>
</svg>

<svg xmlns="http://www.w3.org/2000/svg" width="658" height="200" fill="none"><path fill="#fff" d="M46.73 149.693h5.12c23.362 0 38.124-12.47 59.232-42.934h.41l-15.368 47.866H0v-.41c9.218-5.315 11.479-10.222 14.756-23.712L38.528 35.64c1.433-5.926 2.254-10.222 2.254-13.49 0-4.497-1.225-7.363-5.12-10.222v-.41h54.3v.41c-9.225 5.315-11.48 10.222-14.756 23.712zM146.872 136.06a28 28 0 0 0-.411 3.887c0 3.478 1.643 5.727 4.922 5.727a10.45 10.45 0 0 0 5.332-1.638v.41c-6.356 8.82-14.354 12.273-23.173 12.273-13.331 0-19.074-7.976-19.074-18.82a33.1 33.1 0 0 1 1.03-8.82l13.122-53.385c1.643-6.54 2.666-10.427 2.666-13.287 0-3.686-1.232-6.137-4.309-8.594v-.41h40.611zM158.114 4.415c10.474 0 17.862 7.546 17.862 17.35a19.44 19.44 0 0 1-5.743 13.886 19.67 19.67 0 0 1-13.965 5.71c-10.468 0-17.862-7.546-17.862-17.35a19.29 19.29 0 0 1 5.67-13.956 19.51 19.51 0 0 1 14.013-5.69z"/><path fill="#fff" d="M218.043 53.355h15.353l-2.459 5.116h-13.916l-22.926 92.855c-8.393 34.157-23.128 48.264-53.419 48.674v-.41c10.851-7.359 15.555-25.152 24.969-66.057l17.397-75.062h-9.414l.63-2.249 10.417-4.499 1.841-5.727C193.887 16.747 215.993 0 239.323 0c12.895 0 23.33 6.339 23.33 16.974 0 12.073-8.827 18.82-19.036 18.82-6.759 0-11.463-3.685-12.484-7.976 6.135-1.027 12.894-6.345 12.894-18.001 0-3.888-2.049-6.54-5.732-6.54-7.371 0-13.512 10.226-17.396 34.15z"/><path fill="#fff" d="M218.44 119.276c0-32.54 26.828-68.142 61.833-68.142 16.796 0 25.194 8.598 25.194 20.67 0 22.913-24.783 32.734-53.454 33.963a79 79 0 0 0-1.028 11.662c0 16.389 7.786 24.35 18.638 24.35 9.218 0 15.566-4.501 23.345-14.731h1.224c-8.6 19.85-23.345 29.671-41.163 29.671-20.253 0-34.589-12.891-34.589-37.443m34.252-16.659c17.177-5.313 30.057-25.133 30.057-41.283 0-4.086-1.436-6.535-4.094-6.535-9.196 0-21.667 25.121-25.963 47.818M336.9 130.121a15.5 15.5 0 0 0-.631 4.299c0 5.931 3.884 9.41 8.796 9.41 3.279 0 7.567-1.841 11.464-5.528l.208.41c-7.567 12.07-17.605 18.007-30.5 18.007-14.735 0-22.516-8.597-22.516-21.89a45.5 45.5 0 0 1 1.437-10.027l16.577-66.286h-7.352l.631-2.66c21.287-5.527 34.995-17.389 48.097-38.055h1.842l-8.828 35.598h19.244l-2.257 5.117h-18.418zM397.641 136.06a28 28 0 0 0-.41 3.887c0 3.478 1.642 5.727 4.921 5.727a10.45 10.45 0 0 0 5.332-1.638v.41c-6.355 8.82-14.353 12.273-23.173 12.273-13.33 0-19.073-7.976-19.073-18.82a33.1 33.1 0 0 1 1.03-8.82l13.122-53.385c1.642-6.54 2.666-10.427 2.666-13.287 0-3.686-1.232-6.137-4.309-8.594v-.41h40.61zM408.884 4.415c10.474 0 17.861 7.546 17.861 17.35a19.44 19.44 0 0 1-5.742 13.886 19.67 19.67 0 0 1-13.966 5.71c-10.467 0-17.861-7.546-17.861-17.35a19.29 19.29 0 0 1 5.678-13.965 19.51 19.51 0 0 1 14.03-5.681zM549.849 136.048a13.9 13.9 0 0 0-.631 3.89c0 3.48 1.64 5.73 5.122 5.73a9.8 9.8 0 0 0 5.115-1.639v.41c-6.143 8.826-14.129 12.28-22.928 12.28-13.518 0-19.454-7.981-19.454-18.83 0-2.862.631-5.724 1.262-8.826l11.669-46.864a27.6 27.6 0 0 0 1.262-7.565c0-3.272-1.262-5.32-4.504-5.32-6.352 0-12.906 8.39-17.409 25.581l-14.742 59.75h-32.964l18.021-72.44a25.2 25.2 0 0 0 1.224-7.161c0-3.48-1.432-5.73-4.914-5.73-6.346 0-12.691 8.39-17.195 26.193l-14.767 59.138h-33.172l19.655-78.99c1.432-6.543 2.46-10.433 2.46-13.295 0-3.688-1.262-6.14-4.1-8.599v-.41h40.37l-5.936 23.534c7.569-16.164 16.993-25.576 31.123-25.576 13.511 0 19.447 9.204 19.447 21.075a31 31 0 0 1-.404 4.299c7.778-16.17 17.605-25.374 31.539-25.374 13.719 0 19.453 8.826 19.453 20.463a56.4 56.4 0 0 1-1.432 11.454zM567.072 119.276c0-32.54 26.835-68.142 61.833-68.142 16.796 0 25.194 8.598 25.194 20.67 0 22.913-24.784 32.734-53.454 33.963a79 79 0 0 0-1.022 11.662c0 16.389 7.78 24.35 18.632 24.35 9.218 0 15.565-4.501 23.345-14.731h1.262c-8.606 19.85-23.345 29.671-41.17 29.671-20.253 0-34.62-12.891-34.62-37.443m34.252-16.659c17.176-5.313 30.057-25.133 30.057-41.283 0-4.086-1.43-6.535-4.088-6.535-9.177 0-21.648 25.121-25.944 47.818zM657.245 149.465c-.042 3.945-3.273 7.112-7.223 7.079-3.951-.032-7.13-3.251-7.107-7.196s3.239-7.128 7.19-7.114a7.217 7.217 0 0 1 7.14 7.231m-.699.11a6.375 6.375 0 0 0-6.429-6.294 6.374 6.374 0 0 0-6.328 6.395 6.374 6.374 0 0 0 6.378 6.345 6.4 6.4 0 0 0 4.515-1.907 6.38 6.38 0 0 0 1.838-4.539zm-5.7.493 2.379 3.335h-.927l-2.329-3.291h-1.572v3.291h-.764v-8.028h2.708c1.761 0 2.525 1.017 2.525 2.344a2.18 2.18 0 0 1-2.045 2.337zm-2.339-.504h1.725c1.487 0 1.945-.823 1.945-1.697 0-1.015-.696-1.619-1.763-1.619h-1.882z"/></svg>
